Radio/Source/NRK MP3 - Dark.svg

<?xml version="1.0" encoding="UTF-8" standalone="no"?>
<svg
   xmlns:dc="http://purl.org/dc/elements/1.1/"
   xmlns:cc="http://creativecommons.org/ns#"
   xmlns:rdf="http://www.w3.org/1999/02/22-rdf-syntax-ns#"
   xmlns:svg="http://www.w3.org/2000/svg"
   xmlns="http://www.w3.org/2000/svg"
   xmlns:sodipodi="http://sodipodi.sourceforge.net/DTD/sodipodi-0.dtd"
   xmlns:inkscape="http://www.inkscape.org/namespaces/inkscape"
   width="25.061417"
   height="18.717283"
   viewBox="0 0 25.061417 18.717283"
   version="1.1"
   id="svg32"
   sodipodi:docname="NRK MP3 - Dark.svg"
   inkscape:version="0.92.3 (2405546, 2018-03-11)">
  <metadata
     id="metadata36">
    <rdf:RDF>
      <cc:Work
         rdf:about="">
        <dc:format>image/svg+xml</dc:format>
        <dc:type
           rdf:resource="http://purl.org/dc/dcmitype/StillImage" />
        <dc:title>nrk-logo-nrk-mp3-symbol--color</dc:title>
      </cc:Work>
    </rdf:RDF>
  </metadata>
  <sodipodi:namedview
     pagecolor="#ffffff"
     bordercolor="#666666"
     borderopacity="1"
     objecttolerance="10"
     gridtolerance="10"
     guidetolerance="10"
     inkscape:pageopacity="0"
     inkscape:pageshadow="2"
     inkscape:window-width="1920"
     inkscape:window-height="1017"
     id="namedview34"
     showgrid="false"
     fit-margin-top="0"
     fit-margin-left="0"
     fit-margin-right="0"
     fit-margin-bottom="0"
     inkscape:zoom="7.375"
     inkscape:cx="-9.5024293"
     inkscape:cy="9.5680316"
     inkscape:window-x="-8"
     inkscape:window-y="-8"
     inkscape:window-maximized="1"
     inkscape:current-layer="svg32" />
  <!-- Generator: Sketch 46.2 (44496) - http://www.bohemiancoding.com/sketch -->
  <title
     id="title2">nrk-logo-nrk-mp3-symbol--color</title>
  <desc
     id="desc4">Created with Sketch.</desc>
  <defs
     id="defs6" />
  <g
     id="g892"
     transform="translate(-3.468531,-6.8507492)"
     style="fill:#000000;fill-opacity:1">
    <g
       style="fill:#000000;fill-opacity:1;fill-rule:nonzero;stroke:none;stroke-width:1"
       transform="translate(7,6)"
       id="nrk">
      <rect
         style="fill:#000000;fill-opacity:1"
         height="5.990809"
         width="2.0939062"
         y="0.97542459"
         x="0.60199803"
         id="rect9" />
      <rect
         style="fill:#000000;fill-opacity:1"
         height="5.990809"
         width="2.0939062"
         y="0.97542459"
         x="6.5736265"
         id="rect11" />
      <rect
         style="fill:#000000;fill-opacity:1"
         height="5.990809"
         width="2.0939062"
         y="0.97542459"
         x="11.292108"
         id="rect13" />
      <path
         style="fill:#000000;fill-opacity:1"
         inkscape:connector-curvature="0"
         id="Shape"
         d="m 9.9782218,3.2387612 c 0.6521482,0 1.1828172,-0.5338661 1.1828172,-1.1956044 0,-0.6585414 -0.530669,-1.19240755 -1.1828172,-1.19240755 -0.6521479,0 -1.1796204,0.53386615 -1.1796204,1.19240755 0,0.6617383 0.5274725,1.1956044 1.1796204,1.1956044 z" />
      <path
         style="fill:#000000;fill-opacity:1"
         inkscape:connector-curvature="0"
         id="path16"
         d="m 15.352048,6.9662338 h 2.301698 c 0,0 -1.630369,-2.6821179 -1.64955,-2.7172828 -0.124675,-0.2141858 -0.131069,-0.3420579 -0.0096,-0.5498501 l 1.659141,-2.72687313 h -2.301698 c 0,0 -1.384216,2.26973023 -1.572827,2.58301703 -0.188612,0.3164835 -0.179021,0.5114885 0.0064,0.8343656 0.188612,0.3260739 1.566434,2.5766234 1.566434,2.5766234 z" />
      <path
         style="fill:#000000;fill-opacity:1"
         inkscape:connector-curvature="0"
         id="path18"
         d="m 6.4425574,6.9662338 v -0.0032 L 5.3236763,1.9376623 C 5.214985,1.3878122 4.7386613,0.97542457 4.1632368,0.97542457 H 2.8173826 L 4.1696304,6.9694306 h 2.272927 z" />
    </g>
    <g
       style="fill:#000000;fill-opacity:1;fill-rule:nonzero;stroke:none;stroke-width:1"
       transform="translate(3.452547,14.609391)"
       id="mp3">
      <path
         style="fill:#000000;fill-opacity:1"
         inkscape:connector-curvature="0"
         id="path21"
         d="m 14.5998,0.00639361 h -3.292707 c 0,0 1.87013,3.06893109 1.892507,3.11048949 0.143857,0.2429571 0.153447,0.3932068 0.01279,0.6265734 l -1.902098,3.12008 h 3.292707 c 0,0 1.588811,-2.5958042 1.802997,-2.957043 0.214186,-0.3612388 0.204595,-0.585015 -0.0096,-0.9558442 C 16.163037,2.5542458 16.15984,2.5542458 14.5998,0.00639361 Z" />
      <path
         style="fill:#000000;fill-opacity:1"
         inkscape:connector-curvature="0"
         id="path23"
         d="M 24.90949,1.7742258 C 24.797602,1.5856144 23.819381,0.00639361 23.819381,0.00639361 h -7.045755 l 1.537663,2.58301699 h 3.711488 l -1.531269,2.5094905 1.707093,2.8675325 -1.646353,2.7076924 h 3.008192 c 0.482717,-0.7896105 1.205194,-2.0139861 1.358641,-2.2665336 0.217383,-0.3612387 0.207792,-0.585015 -0.0096,-0.959041 -0.150249,-0.2557442 -0.955844,-1.5344655 -1.438561,-2.3208791 0,0 1.294705,-2.1450549 1.444955,-2.3976024 0.217383,-0.3612387 0.207792,-0.5850149 -0.0064,-0.9558441 z" />
      <path
         style="fill:#000000;fill-opacity:1"
         inkscape:connector-curvature="0"
         id="path25"
         d="m 18.132268,5.4825175 c -0.463537,0.7576423 -1.24036,2.0267732 -1.384216,2.2729271 -0.207792,0.3580419 -0.217383,0.5754245 -0.0096,0.9206793 0.143857,0.242957 0.927073,1.5216781 1.393807,2.2825171 0.466733,-0.760839 1.246753,-2.0427569 1.393806,-2.2825171 0.207792,-0.3484516 0.198202,-0.5658342 -0.0096,-0.9206793 C 19.369431,7.5092907 18.595804,6.2401598 18.132268,5.4825175 Z" />
      <path
         style="fill:#000000;fill-opacity:1"
         inkscape:connector-curvature="0"
         id="path27"
         d="m 8.7688312,0.00639361 c -0.3004995,0 -0.5978022,0.07032967 -0.9622378,0.29410589 C 7.5636364,0.45074925 5.5912088,2.1258741 5.440959,2.2537462 5.2907093,2.1258741 3.3150849,0.45074925 3.0753247,0.3004995 2.7108891,0.07992008 2.4135864,0.00639361 2.1130869,0.00639361 c -0.2557442,0 -2.09710288,0 -2.09710288,0 V 9.404995 L 2.9282717,7.2151848 V 3.442957 L 5.440959,5.3322677 7.9536463,3.442957 v 7.231169 H 10.885115 V 0.00639361 c -0.0032,0 -1.8573428,0 -2.1162838,0 z" />
    </g>
  </g>
</svg>

<svg id="a" version="1.1" viewBox="0 0 25.061 18.717" xmlns="http://www.w3.org/2000/svg">
 <g id="b" transform="translate(-3.4685 -6.8507)">
  <g id="c" transform="translate(7,6)">
   <rect id="d" x=".602" y=".97542" width="2.0939" height="5.9908"/>
   <rect id="e" x="6.5736" y=".97542" width="2.0939" height="5.9908"/>
   <rect id="f" x="11.292" y=".97542" width="2.0939" height="5.9908"/>
   <path id="g" d="m9.9782 3.2388c0.65215 0 1.1828-0.53387 1.1828-1.1956 0-0.65854-0.53067-1.1924-1.1828-1.1924-0.65215 0-1.1796 0.53387-1.1796 1.1924 0 0.66174 0.52747 1.1956 1.1796 1.1956z"/>
   <path id="h" d="m15.352 6.9662h2.3017s-1.6304-2.6821-1.6496-2.7173c-0.12468-0.21419-0.13107-0.34206-0.0096-0.54985l1.6591-2.7269h-2.3017s-1.3842 2.2697-1.5728 2.583c-0.18861 0.31648-0.17902 0.51149 0.0064 0.83437 0.18861 0.32607 1.5664 2.5766 1.5664 2.5766z"/>
   <path id="i" d="m6.4426 6.9662v-0.0032l-1.1189-5.0254c-0.10869-0.54985-0.58502-0.96224-1.1604-0.96224h-1.3459l1.3522 5.994h2.2729z"/>
  </g>
  <g id="j" transform="translate(3.4525 14.609)">
   <path id="k" d="m14.6 0.0063936h-3.2927s1.8701 3.0689 1.8925 3.1105c0.14386 0.24296 0.15345 0.39321 0.01279 0.62657l-1.9021 3.1201h3.2927s1.5888-2.5958 1.803-2.957 0.2046-0.58502-0.0096-0.95584c-0.23336-0.3964-0.23656-0.3964-1.7966-2.9443z"/>
   <path id="l" d="m24.909 1.7742c-0.11189-0.18861-1.0901-1.7678-1.0901-1.7678h-7.0458l1.5377 2.583h3.7115l-1.5313 2.5095 1.7071 2.8675-1.6464 2.7077h3.0082c0.48272-0.78961 1.2052-2.014 1.3586-2.2665 0.21738-0.36124 0.20779-0.58502-0.0096-0.95904-0.15025-0.25574-0.95584-1.5345-1.4386-2.3209 0 0 1.2947-2.1451 1.445-2.3976 0.21738-0.36124 0.20779-0.58501-0.0064-0.95584z"/>
   <path id="m" d="m18.132 5.4825c-0.46354 0.75764-1.2404 2.0268-1.3842 2.2729-0.20779 0.35804-0.21738 0.57542-0.0096 0.92068 0.14386 0.24296 0.92707 1.5217 1.3938 2.2825 0.46673-0.76084 1.2468-2.0428 1.3938-2.2825 0.20779-0.34845 0.1982-0.56583-0.0096-0.92068-0.14703-0.24615-0.92066-1.5153-1.3842-2.2729z"/>
   <path id="n" d="m8.7688 0.0063936c-0.3005 0-0.5978 0.07033-0.96224 0.29411-0.24296 0.15025-2.2154 1.8254-2.3656 1.9532-0.15025-0.12787-2.1259-1.803-2.3656-1.9532-0.36444-0.22058-0.66174-0.29411-0.96224-0.29411h-2.0971v9.3986l2.9123-2.1898v-3.7722l2.5127 1.8893 2.5127-1.8893v7.2312h2.9315v-10.668h-2.1163z"/>
  </g>
 </g>
</svg>
